build/img/sprites/Receipt.svg

<svg width="24" height="25" viewBox="0 0 24 25" fill="none" xmlns="http://www.w3.org/2000/svg">
<path d="M6.75 10.25C6.75 10.0511 6.82902 9.86032 6.96967 9.71967C7.11032 9.57902 7.30109 9.5 7.5 9.5H16.5C16.6989 9.5 16.8897 9.57902 17.0303 9.71967C17.171 9.86032 17.25 10.0511 17.25 10.25C17.25 10.4489 17.171 10.6397 17.0303 10.7803C16.8897 10.921 16.6989 11 16.5 11H7.5C7.30109 11 7.11032 10.921 6.96967 10.7803C6.82902 10.6397 6.75 10.4489 6.75 10.25ZM7.5 14H16.5C16.6989 14 16.8897 13.921 17.0303 13.7803C17.171 13.6397 17.25 13.4489 17.25 13.25C17.25 13.0511 17.171 12.8603 17.0303 12.7197C16.8897 12.579 16.6989 12.5 16.5 12.5H7.5C7.30109 12.5 7.11032 12.579 6.96967 12.7197C6.82902 12.8603 6.75 13.0511 6.75 13.25C6.75 13.4489 6.82902 13.6397 6.96967 13.7803C7.11032 13.921 7.30109 14 7.5 14ZM21.75 5.75V20C21.7499 20.1278 21.7172 20.2535 21.6549 20.3651C21.5926 20.4768 21.5028 20.5706 21.394 20.6378C21.2853 20.7049 21.1611 20.7432 21.0334 20.7489C20.9057 20.7546 20.7787 20.7275 20.6644 20.6703L18 19.3381L15.3356 20.6703C15.2314 20.7225 15.1165 20.7496 15 20.7496C14.8835 20.7496 14.7686 20.7225 14.6644 20.6703L12 19.3381L9.33563 20.6703C9.23143 20.7225 9.11652 20.7496 9 20.7496C8.88348 20.7496 8.76857 20.7225 8.66437 20.6703L6 19.3381L3.33563 20.6703C3.22131 20.7275 3.09427 20.7546 2.96657 20.7489C2.83887 20.7432 2.71474 20.7049 2.60597 20.6378C2.49721 20.5706 2.40741 20.4768 2.34511 20.3651C2.28281 20.2535 2.25007 20.1278 2.25 20V5.75C2.25 5.35218 2.40804 4.97064 2.68934 4.68934C2.97064 4.40804 3.35218 4.25 3.75 4.25H20.25C20.6478 4.25 21.0294 4.40804 21.3107 4.68934C21.592 4.97064 21.75 5.35218 21.75 5.75ZM20.25 5.75H3.75V18.7869L5.66437 17.8287C5.76857 17.7766 5.88349 17.7495 6 17.7495C6.11651 17.7495 6.23143 17.7766 6.33563 17.8287L9 19.1619L11.6644 17.8287C11.7686 17.7766 11.8835 17.7495 12 17.7495C12.1165 17.7495 12.2314 17.7766 12.3356 17.8287L15 19.1619L17.6644 17.8287C17.7686 17.7766 17.8835 17.7495 18 17.7495C18.1165 17.7495 18.2314 17.7766 18.3356 17.8287L20.25 18.7869V5.75Z" fill="#4988D1"/>
</svg>

<svg width="24" height="25" viewBox="0 0 24 25" fill="none" xmlns="http://www.w3.org/2000/svg"><path d="M6.75 10.25a.75.75 0 01.75-.75h9a.75.75 0 110 1.5h-9a.75.75 0 01-.75-.75zM7.5 14h9a.75.75 0 100-1.5h-9a.75.75 0 100 1.5zm14.25-8.25V20a.75.75 0 01-1.086.67L18 19.338l-2.664 1.332a.75.75 0 01-.672 0L12 19.338 9.336 20.67a.75.75 0 01-.672 0L6 19.338 3.336 20.67A.75.75 0 012.25 20V5.75a1.5 1.5 0 011.5-1.5h16.5a1.5 1.5 0 011.5 1.5zm-1.5 0H3.75v13.037l1.914-.958a.75.75 0 01.672 0L9 19.162l2.664-1.333a.75.75 0 01.672 0L15 19.162l2.664-1.333a.75.75 0 01.672 0l1.914.958V5.75z" fill="#4988D1"/></svg>
